resources/assets/img/nocard.svg

<svg height="285" viewBox="0 0 289 285" width="289" xmlns="http://www.w3.org/2000/svg" xmlns:xlink="http://www.w3.org/1999/xlink"><defs><path id="a" d="m86 50h149c1.656854 0 3 1.3431458 3 3v166 29c0 1.656854-1.343146 3-3 3h-149c-1.6568542 0-3-1.343146-3-3v-195c0-1.6568542 1.3431458-3 3-3z"/><mask id="b" fill="#fff" height="201" width="155" x="0" y="0"><use xlink:href="#a"/></mask></defs><g fill="none" fill-rule="evenodd" transform="translate(3 3)"><use style="stroke:#434445;stroke-width:8;stroke-linecap:square;stroke-linejoin:round;stroke-dasharray:2 7 2 14;mask:url(#b)" xlink:href="#a"/><path d="m118 81h149c1.656854 0 3 1.3431458 3 3v166 29c0 1.656854-1.343146 3-3 3h-149c-1.656854 0-3-1.343146-3-3v-195c0-1.6568542 1.343146-3 3-3z" fill="#e8e9ea"/><text fill="#808080" font-family="ArialRoundedMTBold, Arial Rounded MT Bold" font-size="70"><tspan x="173" y="208">?</tspan></text><g style="stroke:#434445;stroke-linejoin:round;fill:#e8e9ea;stroke-width:6;stroke-linecap:round;stroke-dasharray:1 9 7 11"><circle cx="267.5" cy="15.5" r="15.5"/><circle cx="18" cy="184" r="18"/></g></g></svg>

<?xml version="1.0" encoding="UTF-8" standalone="no"?>
<svg width="289px" height="285px" viewBox="0 0 289 285" version="1.1" xmlns="http://www.w3.org/2000/svg" xmlns:xlink="http://www.w3.org/1999/xlink">
    <!-- Generator: Sketch 48.2 (47327) - http://www.bohemiancoding.com/sketch -->
    <title>Group</title>
    <desc>Created with Sketch.</desc>
    <defs>
        <path d="M86,50 L235,50 C236.656854,50 238,51.3431458 238,53 L238,219 L238,248 C238,249.656854 236.656854,251 235,251 L86,251 C84.3431458,251 83,249.656854 83,248 L83,53 C83,51.3431458 84.3431458,50 86,50 Z" id="path-1"></path>
        <mask id="mask-2" maskContentUnits="userSpaceOnUse" maskUnits="objectBoundingBox" x="0" y="0" width="155" height="201" fill="white">
            <use xlink:href="#path-1"></use>
        </mask>
    </defs>
    <g id="Page-1" stroke="none" stroke-width="1" fill="none" fill-rule="evenodd">
        <g id="Group" transform="translate(3.000000, 3.000000)">
            <use id="Rectangle" stroke="#434445" mask="url(#mask-2)" stroke-width="8" stroke-linecap="square" stroke-linejoin="round" stroke-dasharray="2,7,2,14" xlink:href="#path-1"></use>
            <path d="M118,81 L267,81 C268.656854,81 270,82.3431458 270,84 L270,250 L270,279 C270,280.656854 268.656854,282 267,282 L118,282 C116.343146,282 115,280.656854 115,279 L115,84 C115,82.3431458 116.343146,81 118,81 Z" id="Rectangle" fill="#E8E9EA"></path>
            <text id="?" font-family="ArialRoundedMTBold, Arial Rounded MT Bold" font-size="70" font-weight="normal" fill="#808080">
                <tspan x="173" y="208">?</tspan>
            </text>
            <circle id="Oval" stroke="#434445" stroke-width="6" fill="#E8E9EA" stroke-linecap="round" stroke-linejoin="round" stroke-dasharray="1,9,7,11" cx="267.5" cy="15.5" r="15.5"></circle>
            <circle id="Oval" stroke="#434445" stroke-width="6" fill="#E8E9EA" stroke-linecap="round" stroke-linejoin="round" stroke-dasharray="1,9,7,11" cx="18" cy="184" r="18"></circle>
        </g>
    </g>
</svg>
